src/images/logo-pixi-js.svg

<svg xmlns="http://www.w3.org/2000/svg" width="590" height="208" fill="#ea1e63" xmlns:v="https://vecta.io/nano"><path d="M216.3 68.2c8.3 0 13.5-5.6 13.5-12.5-.1-7.3-5.2-12.7-13.3-12.7s-13.4 5.4-13.2 12.7c-.2 6.9 5.1 12.5 13 12.5zM315.9 43c-8.1 0-13.4 5.4-13.2 12.7-.2 6.9 5.1 12.5 13 12.5 8.3 0 13.5-5.6 13.5-12.5-.1-7.3-5.2-12.7-13.3-12.7h0zm-12.6 35.1h-22.6l-7.1 13-6.3 12.4h-.3l-6.6-12-7.9-13.4H229h-4.6-17.7c-.9-9.4-5.4-17.4-11.7-22.4-7.4-5.9-18.5-8.9-34-8.9-15.3 0-26.2 1-34 2.3v109.7h24.9v-39.7c2.3.3 5.3.5 8.6.5 14.9 0 27.6-3.6 36.1-11.7 3.2-3 5.6-6.7 7.3-10.9v61.9h19.9 5.2 22.3l7.6-14.5 6.1-12.2h.5c2 4.1 4 8.2 6.3 12.2l8.1 14.5h23.4 5 20.1V78.1H308h-4.7zm-143 22.1c-3.6 0-6.3-.2-8.4-.7V66.8c1.8-.5 5.3-1 10.4-1 12.5 0 19.6 6.1 19.6 16.3 0 11.4-8.2 18.1-21.6 18.1zM229 151V84.9l22.2 32.9L229 151zm52.4-34.4l21.9-31.7v66.2l-21.9-34.5zm153.2-23.8c-14.4-5.4-20.6-8.6-20.6-15.7 0-5.8 5.3-10.7 16.2-10.7s18.8 3.1 23.3 5.3l5.5-20.3c-6.6-3-15.8-5.6-28.4-5.6-23.1 0-38.1 11.3-41.4 26.9V47.6h-25.1v70c0 17.3-6.6 22.1-17.2 22.1-5 0-9.4-.8-12.9-2l-2.8 20.3c5 1.6 12.5 2.6 18.3 2.6 24.4 0 39.6-11.1 39.6-42.7V85.6c2.8 12.6 13.9 20.9 29.9 26.5 13.4 4.8 18.6 8.7 18.6 15.7 0 7.3-6.1 12-17.7 12-10.7 0-21.1-3.5-27.9-6.9l-5.1 20.8c6.3 3.5 18.8 6.8 31.5 6.8 30.5 0 44.9-15.8 44.9-34.5.2-15.7-9.1-25.9-28.7-33.2h0z"/></svg>

<svg width="590" height="208" viewBox="0 0 590 208" fill="none" xmlns="http://www.w3.org/2000/svg">
<path d="M216.3 68.2C224.6 68.2 229.8 62.6 229.8 55.7C229.7 48.4 224.6 43 216.5 43C208.4 43 203.1 48.4 203.3 55.7C203.1 62.6 208.4 68.2 216.3 68.2Z" fill="#EA1E63"/>
<path d="M315.9 43C307.8 43 302.5 48.4 302.7 55.7C302.5 62.6 307.8 68.2 315.7 68.2C324 68.2 329.2 62.6 329.2 55.7C329.1 48.4 324 43 315.9 43V43Z" fill="#EA1E63"/>
<path d="M303.3 78.1H280.7L273.6 91.1C271.5 95.1 269.5 99.2 267.3 103.5H267C264.9 99.7 262.7 95.6 260.4 91.5L252.5 78.1H229H224.4H206.7C205.8 68.7 201.3 60.7 195 55.7C187.6 49.8 176.5 46.8 161 46.8C145.7 46.8 134.8 47.8 127 49.1V158.8H151.9V119.1C154.2 119.4 157.2 119.6 160.5 119.6C175.4 119.6 188.1 116 196.6 107.9C199.8 104.9 202.2 101.2 203.9 97V158.9H223.8H229H251.3L258.9 144.4C260.9 140.4 263 136.5 265 132.2H265.5C267.5 136.3 269.5 140.4 271.8 144.4L279.9 158.9H303.3H308.3H328.4V78.1H308H303.3ZM160.3 100.2C156.7 100.2 154 100 151.9 99.5V66.8C153.7 66.3 157.2 65.8 162.3 65.8C174.8 65.8 181.9 71.9 181.9 82.1C181.9 93.5 173.7 100.2 160.3 100.2ZM229 151V84.9L251.2 117.8L229 151ZM281.4 116.6L303.3 84.9V151.1L281.4 116.6Z" fill="#EA1E63"/>
<path d="M434.6 92.8C420.2 87.4 414 84.2 414 77.1C414 71.3 419.3 66.4 430.2 66.4C441.1 66.4 449 69.5 453.5 71.7L459 51.4C452.4 48.4 443.2 45.8 430.6 45.8C407.5 45.8 392.5 57.1 389.2 72.7V47.6H364.1V117.6C364.1 134.9 357.5 139.7 346.9 139.7C341.9 139.7 337.5 138.9 334 137.7L331.2 158C336.2 159.6 343.7 160.6 349.5 160.6C373.9 160.6 389.1 149.5 389.1 117.9V85.6C391.9 98.2 403 106.5 419 112.1C432.4 116.9 437.6 120.8 437.6 127.8C437.6 135.1 431.5 139.8 419.9 139.8C409.2 139.8 398.8 136.3 392 132.9L386.9 153.7C393.2 157.2 405.7 160.5 418.4 160.5C448.9 160.5 463.3 144.7 463.3 126C463.5 110.3 454.2 100.1 434.6 92.8V92.8Z" fill="#EA1E63"/>
</svg>
